X:1019
T:Alan Shute's Jig
C:Nigel Gatherer
Z:Nigel Gatherer
M:6/8
L: 1/8
K:G
B | dBG cAF | GBd gfg | afd cBc | ecA ABc |
dBG cAF | GBd gfg | afd cAF | G3 G2 :|
B | efe fe^d | eBG EFG | def ed^c | dAF DEF | 
GFG AGA Bcd efg | afd cAF | G3 G2 :|
<end>
<start>
